packages/assets/static/images/icons/folder-minus.svg

<svg width="24" height="24" viewBox="0 0 24 24" xmlns="http://www.w3.org/2000/svg">
<path d="M8.62494 13.688C8.62494 13.3896 8.74347 13.1035 8.95444 12.8925C9.16542 12.6815 9.45157 12.563 9.74994 12.563H14.2499C14.5483 12.563 14.8345 12.6815 15.0454 12.8925C15.2564 13.1035 15.3749 13.3896 15.3749 13.688C15.3749 13.9864 15.2564 14.2725 15.0454 14.4835C14.8345 14.6945 14.5483 14.813 14.2499 14.813H9.74994C9.45157 14.813 9.16542 14.6945 8.95444 14.4835C8.74347 14.2725 8.62494 13.9864 8.62494 13.688ZM22.1249 8.43799V19.0214C22.1244 19.4964 21.9355 19.9518 21.5997 20.2877C21.2638 20.6236 20.8084 20.8125 20.3334 20.813H3.69181C3.21018 20.8123 2.74848 20.6206 2.40791 20.28C2.06734 19.9395 1.87568 19.4778 1.87494 18.9961V5.063C1.87494 4.56571 2.07248 4.0888 2.42411 3.73717C2.77574 3.38554 3.25266 3.188 3.74994 3.188H8.66338C8.92896 3.18728 9.19166 3.24298 9.43409 3.35143C9.67652 3.45988 9.89315 3.61859 10.0696 3.81706L12.5071 6.56299H20.2499C20.7472 6.56299 21.2241 6.76054 21.5758 7.11217C21.9274 7.4638 22.1249 7.94071 22.1249 8.43799ZM4.12494 6.56299H9.49494L8.49463 5.43799H4.12494V6.56299ZM19.8749 8.81299H4.12494V18.563H19.8749V8.81299Z"/>
</svg>

<svg viewBox="0 0 24 24" xmlns="http://www.w3.org/2000/svg" aria-hidden="true" fill="currentColor" height="24px" width="24px"><path d="M8.625 13.688a1.125 1.125 0 0 1 1.125-1.125h4.5a1.125 1.125 0 1 1 0 2.25h-4.5a1.125 1.125 0 0 1-1.125-1.125m13.5-5.25v10.583a1.794 1.794 0 0 1-1.792 1.792H3.692a1.82 1.82 0 0 1-1.817-1.817V5.063A1.875 1.875 0 0 1 3.75 3.188h4.913a1.88 1.88 0 0 1 1.407.63l2.437 2.745h7.743a1.875 1.875 0 0 1 1.875 1.875m-18-1.875h5.37l-1-1.125h-4.37zm15.75 2.25H4.125v9.75h15.75z"/></svg>
